X:1
T:Braunschweig, 87.87 D
T:Braunschweig, 87.87 D
T:James McGranahan, 1887
T:Public Domain Courtesy of the Cyber Hymnal™
C:James McGranahan, 1887
Z:Public Domain
Z:Courtesy of the Cyber Hymnal™
%%score ( 1 2 ) ( 3 4 )
L:1/8
Q:1/4=108
M:2/2
K:Eb
V:1 treble 
V:2 treble 
V:3 bass 
V:4 bass 
V:1
 E2 | [EG]3 [EG] [EG]2 [B,F]2 | [B,F]2 [B,E]2 [B,E]2 [B,G]2 | [DB]3 [DB] [DB]2 [DA]2 | %4
 [EG]2 [GB]4 [GB]2 | [Ac]3 [Ac] [Ac]2 [Ad]2 | [Ge]3 [Ge] [Ge]2 [Ge]2 | [Fd]2 [Ec]2 [DB]2 [C=A]2 | %8
 [Ec]2 [DB]4 B2 | B6 [AB]2 | B6 [GB]2 | [Ac]2 [Ad]2 [Be]2 [Af]2 | [Ge]4 [Fd]2 [Bd]2 | e6 [Be]2 | %14
 e6 [Ac]2 | [GB]2 E2 [DG]3 [DF] | [DF]4 E2 |] %17
V:2
 E2 | x8 | x8 | x8 | x8 | x8 | x8 | x8 | x6 (DE) | F2 G2 A2 x2 | G2 F2 E2 x2 | x8 | x8 | %13
 B2 A2 G2 x2 | A2 G2 A2 x2 | x2 E2 x4 | x4 E2 |] %17
V:3
 [E,G,]2 | [E,B,]3 [E,B,] [E,B,]2 [E,A,]2 | [E,A,]2 [E,G,]2 [E,G,]2 E,2 | %3
 [B,,F,]3 [B,,F,] [B,,F,]2 [B,,B,]2 | [E,B,]2 [E,B,]4 [E,E]2 | [A,E]3 [A,E] [A,E]2 [F,B,]2 | %6
 [E,B,]3 [E,B,] [E,B,]2 [E,B,]2 | [F,B,]2 [F,=A,]2 [F,B,]2 F,2 | [B,,F,]2 [B,,F,]4 F,2 | %9
 [D,B,]2 [E,B,]2 [F,B,]2 [B,,D]2 | [E,E]2 [F,D]2 [G,E]2 [E,E]2 | [A,E]2 [F,B,]2 [G,B,]2 [A,C]2 | %12
 B,4 B,2 B,2 | [G,B,]2 [F,B,]2 [E,B,]2 [_D,G,]2 | [C,A,]2 [B,,B,]2 [A,,C]2 [A,,E]2 | %15
 [B,,E]2 [B,,G,]2 [B,,B,]3 [B,,A,] | [B,,A,]4 [E,G,]2 |] %17
V:4
 x2 | x8 | x6 E,2 | x8 | x8 | x8 | x8 | x6 F,2 | x6 (B,,C,) | x8 | x8 | x8 | B,4 B,2 (B,A,) | x8 | %14
 x8 | x8 | x6 |] %17

